X:10602
T:The Flowers of Edinburgh
R:Reel
B:Tuneworks Tunebook (https://www.tuneworks.co.uk/)
G:tuneworks
Z:Jon Warbrick, jon.warbrick@googlemail.com
M:4/4
L:1/8
K:G
|: GE | "G"D2 DE G2 GA | BGBd cBAG | "D"FGEF D2DE | FDdF E2 GE | 
"G"D2 DE G2GA | BGBd efge | "C"dcBA GFGA | "Em"B2 G2 G2:|
|: Bd | "Em"g2 gf gbag | "D"f2 fe fagf | "C"edef gfed | "Em"B2 e2 e2 ge | 
"G"dBGB d2 d2 | "C"edef g2 fe | "G"dcBA "D"GFGA | "G"B2 G2 G2 :|


